assets/images/icons/vk.svg

<svg viewBox="0 0 64 66" version="1.1" xmlns="http://www.w3.org/2000/svg">
    <g stroke="none" stroke-width="1" fill="none" fill-rule="evenodd">
        <path class="stroke" stroke="#FFFFFF" d="M32.0000819,63.9998361 C14.8788239,63.9998361 1,50.1205206 1,32.9999181 C1,15.8788239 14.8788239,2 32.0000819,2 C49.1203568,2 63,15.8788239 63,32.9999181 C63,50.1205206 49.1203568,63.9998361 32.0000819,63.9998361 Z"></path>
        <path class="fill" fill="#FFFFFF" d="M50.0960952,23.4851613 C50.2574873,22.6780646 49.902343,22.2258402 49.0627503,22.2258402 L44.8333787,22.2258402 C43.8647538,22.2258402 43.5096095,22.6455686 43.2190493,23.2590491 C43.2190493,23.2590491 40.9323659,28.131406 38.1500849,31.2016639 C37.2569214,32.1942189 36.8027936,32.4929371 36.3097793,32.4929371 C35.9120775,32.4929371 35.7286588,32.1614509 35.7286588,31.266112 L35.7286588,23.4205772 C35.7286588,22.3229203 35.5994907,22 34.6955859,22 L27.915484,22 C27.3988116,22 27.0758913,22.3003498 27.0758913,22.7101526 C27.0758913,23.7439054 28.6579967,23.9773598 28.6579967,26.7782682 L28.6579967,32.5575211 C28.6579967,33.7198981 28.5934126,34.1718505 28.0445161,34.1718505 C26.5917149,34.1718505 23.1370799,29.1676062 21.1999662,23.4851613 C20.8124619,22.3229203 20.3927335,22 19.2949406,22 L15.0655689,22 C14.4520884,22 14,22.4195924 14,23.0329369 C14,24.1629539 15.3237691,29.3934464 20.5219016,36.3996605 C24.0087606,41.1133446 28.5934126,43.6639388 32.7259762,43.6639388 C35.2443464,43.6639388 35.8578269,43.2443464 35.8578269,42.1787775 L35.8578269,38.5627503 C35.8578269,37.6587096 36.2129712,37.2713412 36.7295077,37.2713412 C37.3106282,37.2713412 38.3363589,37.4580231 40.7330391,39.8219354 C43.5741936,42.5340578 43.7679457,43.6639388 45.317827,43.6639388 L50.0637352,43.6639388 C50.5480476,43.6639388 51,43.4379626 51,42.6308658 C51,41.565297 49.6116468,39.6605433 47.480781,37.4003734 C46.6091002,36.2381323 45.188523,34.9790832 44.7364346,34.3979627 C44.090866,33.7198981 44.2844822,33.3322579 44.7364346,32.6221052 C44.7364346,32.6221052 49.6116468,25.7451952 50.0960952,23.4851613 Z"></path>
    </g>
</svg>

<svg viewBox="0 0 64 66" xmlns="http://www.w3.org/2000/svg"><g fill="none" fill-rule="evenodd"><path class="stroke" stroke="#FFF" d="M32 64C14.88 64 1 50.12 1 33 1 15.879 14.879 2 32 2c17.12 0 31 13.879 31 31 0 17.12-13.88 31-31 31z"/><path class="fill" fill="#FFF" d="M50.096 23.485c.161-.807-.194-1.26-1.033-1.26h-4.23c-.968 0-1.323.42-1.614 1.034 0 0-2.287 4.872-5.069 7.943-.893.992-1.347 1.29-1.84 1.29-.398 0-.581-.33-.581-1.226v-7.845c0-1.098-.13-1.421-1.033-1.421h-6.78c-.517 0-.84.3-.84.71 0 1.034 1.582 1.267 1.582 4.068v5.78c0 1.162-.065 1.614-.613 1.614-1.453 0-4.908-5.004-6.845-10.687-.388-1.162-.807-1.485-1.905-1.485h-4.23c-.613 0-1.065.42-1.065 1.033 0 1.13 1.324 6.36 6.522 13.367 3.487 4.713 8.071 7.264 12.204 7.264 2.518 0 3.132-.42 3.132-1.485v-3.616c0-.904.355-1.292.872-1.292.58 0 1.606.187 4.003 2.55 2.841 2.713 3.035 3.843 4.585 3.843h4.746c.484 0 .936-.226.936-1.033 0-1.066-1.388-2.97-3.52-5.23-.87-1.163-2.291-2.422-2.744-3.003-.645-.678-.452-1.066 0-1.776 0 0 4.876-6.877 5.36-9.137z"/></g></svg>773598 28.6579967,26.7782682 L28.6579967,32.5575211 C28.6579967,33.7198981 28.5934126,34.1718505 28.0445161,34.1718505 C26.5917149,34.1718505 23.1370799,29.1676062 21.1999662,23.4851613 C20.8124619,22.3229203 20.3927335,22 19.2949406,22 L15.0655689,22 C14.4520884,22 14,22.4195924 14,23.0329369 C14,24.1629539 15.3237691,29.3934464 20.5219016,36.3996605 C24.0087606,41.1133446 28.5934126,43.6639388 32.7259762,43.6639388 C35.2443464,43.6639388 35.8578269,43.2443464 35.8578269,42.1787775 L35.8578269,38.5627503 C35.8578269,37.6587096 36.2129712,37.2713412 36.7295077,37.2713412 C37.3106282,37.2713412 38.3363589,37.4580231 40.7330391,39.8219354 C43.5741936,42.5340578 43.7679457,43.6639388 45.317827,43.6639388 L50.0637352,43.6639388 C50.5480476,43.6639388 51,43.4379626 51,42.6308658 C51,41.565297 49.6116468,39.6605433 47.480781,37.4003734 C46.6091002,36.2381323 45.188523,34.9790832 44.7364346,34.3979627 C44.090866,33.7198981 44.2844822,33.3322579 44.7364346,32.6221052 C44.7364346,32.6221052 49.6116468,25.7451952 50.0960952,23.4851613 Z"></path>
    </g>
</svg>
